!!!!SEGMENT: pl-sa--551-a-ix-31--010_anonim--mazur.krn
!!!cenid: 18xx:509
!!!COM: Anonim
!!!COM-rismid: pe30004985
!!!CDT:
!!!CNT:
!!!OTL: Mazur
!!!PDT:
!!!AGN: Secular; Mazurka
!!!SMS-siglum: PL-SA
!!!SMS-shelfmark: 551/A IX 31
!!!SMS-shelfwork: 010 W
!!!SMS-variant:
!!!SMS-altvar:
!!!NIFC-rismid: 1001069476
!!!URL-scan: http://bc.bdsandomierz.pl/dlibra/publication/1307/edition/1275/content
!!!ONB-nifc: Str. 11 (s. 3) – str. 12 (s. 1)
!!!key:
**kern	**kern	**dynam
*part1	*part1	*part1
*staff2	*staff1	*
*Ipiano	*Iempty	*
*I"Piano	*	*
*I'pf	*	*
*clefF4	*clefG2	*
*k[f#]	*k[f#]	*
*G:	*G:	*
*M3/8	*M3/8	*
*>[A,A]	*>[A,A]	*
=1	=1	=1
*>A	*>A	*
!	!LO:TX:a:t=Mazur	!
8G\L	16g\LL	.
.	16b\JJ	.
8d 8B\	8dd\L	.
8dJ 8B\	8dd\J	.
=2	=2	=2
*rep	*	*
8G\L	16cc#X\LL	.
.	16dd\JJ	.
8d 8B\	8ee\L	.
8dJ 8B\	8dd\J	.
*Xrep	*	*
=3	=3	=3
*rep	*rep	*
!LO:TX:t=P:problem=dwutaktowa repetycja	!LO:TX:t=P:problem=dwutaktowa repetycja	!
8G\L	16g\LL	.
.	16b\JJ	.
8d 8B\	8dd\L	.
8dJ 8B\	8dd\J	.
=4	=4	=4
8G\L	16cc#X\LL	.
.	16dd\JJ	.
8d 8B\	8ee\L	.
8dJ 8B\	8dd\J	.
*Xrep	*Xrep	*
=5	=5	=5
8D\L	16ee\LL	.
.	16dd\JJ	.
8c 8A 8F#\	4a\	.
8cJ 8A 8F#\	.	.
=6	=6	=6
8G\L	16dd\LL	.
.	16b\JJ	.
8d 8B\	4g\	.
8dJ 8B\	.	.
=7	=7	=7
8D\L	16a\LL	.
.	16cc\JJ	.
8c 8A 8F#\	8ee\L	.
8cJ 8A 8F#\	8dd\J	.
=8	=8	=8
8B 8G\	4g/	.
4GG/	.	.
.	8r	.
=9||	=9||	=9||
8D\L	16aLL 16f#/	f
.	16aJJ 16f#/	.
8A 8F#\	8ddL 8a 8f#/	.
8AJ 8F#\	8ddJ 8a 8f#/	.
=10	=10	=10
8AA\L	16cc#X\LL	.
.	16dd\JJ	.
8A 8E 8C#X\	8ee\L	.
8AJ 8E 8C#\	8dd\J	.
=11	=11	=11
*rep	*rep	*
!LO:TX:t=P:problem=dwutaktowa repetycja	!LO:TX:t=P:problem=dwutaktowa repetycja	!
8D\L	16aLL 16f#/	.
.	16aJJ 16f#/	.
8A 8F#\	8ddL 8a 8f#/	.
8AJ 8F#\	8ddJ 8a 8f#/	.
=12	=12	=12
8AA\L	16cc#X\LL	.
.	16dd\JJ	.
8A 8E 8C#X\	8ee\L	.
8AJ 8E 8C#\	8dd\J	.
*Xrep	*Xrep	*
!!LO:LB:g=original
=13	=13	=13
8G\L	16bLL 16g\	.
.	16ccJJ 16a\	.
8d 8B\	4dd 4b\	.
8dJ 8B\	.	.
=14	=14	=14
*rep	*rep	*
8G\L	16bLL 16g\	.
.	16ccJJ 16a\	.
8d 8B\	4dd 4b\	.
8dJ 8B\	.	.
*Xrep	*Xrep	*
=15	=15	=15
8C\L	16eeLL 16cc 16g\	.
.	16eeJ 16cc 16g\	.
8c 8G 8E\	8ee 8cc 8g\	.
8cJ 8G 8E\	8eeJ 8cc 8g\	.
=16	=16	=16
8G\L	4.dd 4.b 4.g\	.
8d 8B\	.	.
8dJ 8B\	.	.
=17	=17	=17
8D\L	16ddLL 16a 16f#\	.
.	16ddJJ 16b 16g\	.
!	!LO:TX:a:t=P::problem=note position&colon;w źródle 4dd przed 4cc	!
8c 8A 8F#\	4dd 4cc 4a\	.
8cJ 8A 8F#\	.	.
=18	=18	=18
*rep	*rep	*
8D\L	16ddLL 16a 16f#\	.
.	16ddJJ 16b 16g\	.
8c 8A 8F#\	4dd 4cc 4a\	.
8cJ 8A 8F#\	.	.
*Xrep	*Xrep	*
=19	=19	=19
*rep	*	*
!	!LO:TX:a:t=P::problem=note position&colon;w źródle 16dd przed 16cc	!
8D\L	16ddLL 16cc 16a\	.
!	!LO:TX:a:t=P::problem=note position&colon;w źródle 16dd przed 16cc	!
.	16ddJJ 16cc 16a\	.
8c 8A 8F#\	8eeL 8cc 8a\	.
8cJ 8A 8F#\	8ff#J 8cc 8a\	.
*Xrep	*	*
=20	=20	=20
8B 8G\	4gg 4b 4g\	.
4GG/	.	.
.	8r	.
=21||	=21||	=21||
*tremolo	*	*
8B 8G 8E\L	16ee\LL	.
.	16gg\JJ	.
8B 8G 8E\	8bb\L	.
8B 8G 8E\J	8bb\J	.
*Xtremolo	*	*
=22	=22	=22
!LO:TX:a:t=P::problem=note position&colon;w źródle 8A#X przed 8G	!	!
8A#XL 8G 8E\	16aa#X\LL	.
.	16bb\JJ	.
8c 8G 8E\	8ccc\L	.
8BJ 8G 8E\	8bb\J	.
!!LO:PB:g=original
=23	=23	=23
*rep	*rep	*
8A#XL 8G 8E\	16aa#X\LL	.
.	16bb\JJ	.
8c 8G 8E\	8ccc\L	.
8BJ 8G 8E\	8bb\J	.
*Xrep	*Xrep	*
=24	=24	=24
*	*8va	*
4.B 4.G 4.E\	4ggg\	.
.	16fff#\LL	.
.	16eee\JJ	.
=25	=25	=25
*tremolo	*	*
8d 8A 8F#\L	16ddd\LL	.
.	16ccc\JJ	.
8d 8A 8F#\	4aa\	.
8d 8A 8F#\J	.	.
=26	=26	=26
8d 8B 8G\L	16ddd\LL	.
.	16bb\JJ	.
8d 8B 8G\	4gg\	.
8d 8B 8G\J	.	.
*	*X8va	*
=27	=27	=27
8c 8A 8F# 8D\L	16a\LL	.
.	16cc\JJ	.
8c 8A 8F# 8D\	8ee\L	.
8c 8A 8F# 8D\J	8dd\J	.
*Xtremolo	*	*
=28	=28	=28
!LO:TX:a:t=P:problem=mixed beam	!	!
8B\L 8G\	4g/	.
8GG/J	.	.
8ryy	8r	.
=:!|	=:!|	=:!|
*-	*-	*-
!!!system-decoration: {(s1,s2)}
!!!EED: Antoni Szymański
!!!EST: 2020-12-08
!!!AIN: 1 piano
!!!ENC: Marcin Jachim
!!!END: 2020-06-17
